icons/bladder.svg

<svg width="48" height="48" viewBox="0 0 48 48" fill="none" xmlns="http://www.w3.org/2000/svg">
<path fill-rule="evenodd" clip-rule="evenodd" d="M8.3224 6.05605C9.87072 5.74639 11.3772 6.73684 11.7117 8.27395C11.7134 8.2807 11.7166 8.29295 11.7216 8.31045C11.7383 8.36937 11.7744 8.48724 11.8382 8.65399C11.9656 8.98723 12.2033 9.51544 12.6176 10.16C13.2584 11.1567 14.3444 12.4677 16.1614 13.779C18.1116 13.2834 20.6165 12.7756 22.9053 12.6439C23.2661 12.6222 23.6312 12.611 24.0001 12.611C24.3689 12.611 24.734 12.6222 25.0948 12.6439C27.3836 12.7756 29.8885 13.2834 31.8387 13.779C33.6557 12.4677 34.7418 11.1567 35.3825 10.16C35.7968 9.51543 36.0345 8.98723 36.1619 8.65398C36.2257 8.48724 36.2618 8.36937 36.2785 8.31045C36.2835 8.29297 36.2867 8.28072 36.2884 8.27398C36.6229 6.73685 38.1294 5.74638 39.6777 6.05605C41.2422 6.36895 42.2568 7.89089 41.9439 9.4554L41.9419 9.46552C41.9161 9.58802 41.8886 9.70547 41.8368 9.88781C41.7761 10.1019 41.6867 10.3825 41.5587 10.7174C41.3024 11.3877 40.8908 12.2761 40.2426 13.2844C39.3357 14.6951 37.9827 16.3135 35.9884 17.8848C36.1869 18.8394 36.3334 19.961 36.3334 21.1666C36.3334 23.0617 35.8064 24.4893 34.9677 25.6748C34.1708 26.8013 33.1058 27.6826 32.1096 28.507L32.0608 28.5474C30.7524 29.6303 29.4943 30.6805 28.5334 32.2419C27.5861 33.7813 26.8889 35.8896 26.8889 39.1111C26.8889 40.7066 25.5955 42 24.0001 42C22.4046 42 21.1112 40.7066 21.1112 39.1111C21.1112 35.8896 20.414 33.7813 19.4667 32.2419C18.5058 30.6805 17.2478 29.6303 15.9394 28.5474L15.8905 28.507C14.8943 27.6826 13.8293 26.8013 13.0324 25.6748C12.1937 24.4893 11.6667 23.0617 11.6667 21.1666C11.6667 19.961 11.8132 18.8394 12.0118 17.8848C10.0174 16.3135 8.66442 14.6951 7.7575 13.2844C7.10935 12.2761 6.69771 11.3877 6.44145 10.7174C6.31337 10.3825 6.22406 10.1019 6.1633 9.8878C6.13292 9.78074 6.10965 9.6902 6.09223 9.61768L6.09029 9.60963L6.05831 9.46611L6.05617 9.4554C5.74327 7.89089 6.7579 6.36895 8.3224 6.05605ZM8.71463 8.01721C9.19281 7.92158 9.65819 8.22907 9.75861 8.70487L9.76127 8.7175L9.76501 8.73322L9.76548 8.73515C9.77042 8.75572 9.77866 8.7885 9.7909 8.83264L9.79758 8.85646C9.82954 8.96909 9.88407 9.14327 9.9701 9.36826C10.1421 9.81816 10.44 10.4711 10.9353 11.2415C11.7559 12.518 13.1293 14.1344 15.4001 15.6883L15.778 15.9469L16.2206 15.8298C18.1677 15.3148 20.7432 14.7715 23.0216 14.6405L23.0245 14.6404C23.3456 14.621 23.671 14.611 24.0001 14.611C24.3291 14.611 24.6545 14.621 24.9756 14.6404L24.9785 14.6405C27.2569 14.7715 29.8325 15.3148 31.7796 15.8298L32.2222 15.9469L32.6 15.6883C34.8708 14.1344 36.2442 12.518 37.0648 11.2415C37.5601 10.4711 37.858 9.81816 38.03 9.36826C38.116 9.14327 38.1706 8.96907 38.2025 8.85643C38.2185 8.80018 38.2288 8.75929 38.2347 8.73509L38.2351 8.73308L38.2389 8.71743L38.2415 8.70487C38.3419 8.22907 38.8073 7.92158 39.2855 8.01721C39.7654 8.1132 40.0772 8.57894 39.9837 9.05878C39.967 9.13761 39.9502 9.21007 39.9128 9.3418C39.8673 9.50217 39.7964 9.72642 39.6906 10.0032C39.4789 10.5568 39.1275 11.3205 38.5603 12.2028C37.701 13.5395 36.3556 15.1338 34.2745 16.6778L33.7381 17.0757L33.9002 17.7235C34.138 18.6747 34.3334 19.8712 34.3334 21.1666C34.3334 21.8722 34.243 22.4743 34.0831 23.0034C34.0557 23.0011 34.028 23 34.0001 23H14.0001C13.9721 23 13.9444 23.0011 13.917 23.0034C13.7571 22.4743 13.6667 21.8722 13.6667 21.1666C13.6667 19.8712 13.8621 18.6747 14.1 17.7235L14.262 17.0757L13.7256 16.6778C11.6445 15.1338 10.2991 13.5395 9.43986 12.2028C8.87264 11.3205 8.52122 10.5568 8.30956 10.0032C8.20374 9.72642 8.13284 9.50217 8.08733 9.34179L8.08377 9.3292C8.06401 9.25899 8.04928 9.20159 8.03871 9.15801L8.01562 9.05441C7.92485 8.57611 8.23617 8.11291 8.71463 8.01721ZM15.0396 25C15.6231 25.6843 16.3581 26.2978 17.2145 27.0067L17.2514 27.0372C18.5329 28.0978 20.0243 29.332 21.17 31.1937C22.3403 33.0954 23.1112 35.579 23.1112 39.1111C23.1112 39.602 23.5091 40 24.0001 40C24.491 40 24.8889 39.602 24.8889 39.1111C24.8889 35.579 25.6598 33.0954 26.8301 31.1937C27.9758 29.332 29.4672 28.0978 30.7487 27.0372L30.7856 27.0067C31.642 26.2978 32.377 25.6843 32.9605 25H15.0396Z" fill="black"/>
</svg>

<svg
  xmlns="http://www.w3.org/2000/svg"
  width="24"
  height="24"
  viewBox="0 0 24 24"
  fill="none"
  stroke="currentColor"
  stroke-width="2"
  stroke-linecap="round"
  stroke-linejoin="round"
>
  <path
    fill-rule="evenodd"
    d="M8.322 6.056a2.89 2.89 0 0 1 3.4 2.254c.016.06.052.177.116.344.128.333.365.861.78 1.506.64.997 1.726 2.308 3.543 3.619 1.95-.496 4.455-1.003 6.744-1.135a18 18 0 0 1 2.19 0c2.289.132 4.794.64 6.744 1.135 1.817-1.311 2.903-2.622 3.544-3.619a8.3 8.3 0 0 0 .779-1.506 4 4 0 0 0 .126-.38 2.889 2.889 0 0 1 5.656 1.181l-.002.01c-.026.123-.053.24-.105.423a10 10 0 0 1-.278.83c-.257.67-.668 1.558-1.316 2.566-.907 1.411-2.26 3.03-4.255 4.6.199.955.345 2.077.345 3.283 0 1.895-.527 3.322-1.365 4.508-.797 1.126-1.862 2.008-2.858 2.832l-.05.04c-1.308 1.083-2.566 2.133-3.527 3.695-.947 1.54-1.644 3.648-1.644 6.87a2.889 2.889 0 1 1-5.778 0c0-3.222-.697-5.33-1.644-6.87-.961-1.561-2.22-2.612-3.528-3.695l-.049-.04c-.996-.824-2.06-1.706-2.858-2.832-.838-1.186-1.365-2.613-1.365-4.508 0-1.206.146-2.328.345-3.282-1.995-1.572-3.348-3.19-4.254-4.6a14 14 0 0 1-1.317-2.568 10 10 0 0 1-.349-1.1L6.09 9.61l-.032-.144-.002-.01a2.89 2.89 0 0 1 2.266-3.4m.393 1.961a.89.89 0 0 1 1.044.688l.002.012.004.016v.002l.026.098.007.023c.032.113.086.287.172.512.172.45.47 1.103.965 1.874.82 1.276 2.194 2.892 4.465 4.446l.378.259.443-.117c1.947-.515 4.522-1.059 6.8-1.19h.003a16 16 0 0 1 1.952 0h.003c2.278.131 4.854.675 6.8 1.19l.443.117.378-.259c2.27-1.554 3.644-3.17 4.465-4.446.495-.77.793-1.424.965-1.874a6 6 0 0 0 .205-.633v-.002l.004-.016.003-.012a.889.889 0 0 1 1.742.354 4 4 0 0 1-.071.283c-.046.16-.117.384-.222.661a12 12 0 0 1-1.13 2.2c-.86 1.337-2.205 2.93-4.286 4.475l-.537.398.162.648c.238.95.433 2.147.433 3.443 0 .705-.09 1.307-.25 1.836L34 23H14l-.083.003a6.3 6.3 0 0 1-.25-1.836c0-1.296.195-2.492.433-3.443l.162-.648-.536-.398c-2.081-1.544-3.427-3.139-4.286-4.475a12 12 0 0 1-1.13-2.2 8 8 0 0 1-.223-.661l-.003-.013-.045-.171-.023-.104a.89.89 0 0 1 .699-1.037M15.04 25c.583.684 1.318 1.298 2.175 2.007l.036.03c1.282 1.06 2.773 2.295 3.919 4.157 1.17 1.901 1.941 4.385 1.941 7.917a.889.889 0 1 0 1.778 0c0-3.532.77-6.016 1.941-7.917 1.146-1.862 2.637-3.096 3.919-4.157l.037-.03c.856-.71 1.591-1.323 2.175-2.007z"
    clip-rule="evenodd"
  />
</svg>
